img/decore/main__decore_2.svg

<svg width="156" height="217" viewBox="0 0 156 217" fill="none" xmlns="http://www.w3.org/2000/svg">
<g id="Group 48095792">
<g id="Hero Shape Stars">
<path id="Vector" d="M71.7139 134.88C71.0073 137.487 70.3086 140.066 69.6049 142.598C69.282 138.798 68.8906 134.849 68.25 130.874L68.2315 130.759L68.2093 130.646C65.8684 118.663 59.2096 108.485 47.3865 101.074C46.5916 100.572 45.7893 100.061 44.9783 99.5442C35.5257 93.5217 24.8869 86.7435 11.0606 84.3825C28.4296 81.3364 41.825 74.9452 52.2224 65.9277C63.3034 56.3174 70.5332 44.1109 75.7123 30.9357L75.7193 30.9179L75.7262 30.9001C76.9039 27.8553 77.8332 24.6051 78.6306 21.4225C78.5273 23.0746 78.4239 24.7377 78.3204 26.4221L78.3193 26.4407L78.3183 26.4593C78.2027 28.521 78.0396 30.7122 77.8711 32.9758C77.5148 37.7629 77.1344 42.8734 77.1286 47.7656C76.6408 64.2178 90.3551 72.8857 102.422 77.5653L102.481 77.5879L102.539 77.6095C104.469 78.3186 106.457 78.9575 108.502 79.5071C107.327 79.812 106.166 80.1293 105.018 80.4531L104.93 80.4778L104.844 80.5047C100.091 81.9791 94.7392 85.0211 91.577 89.2767C91.4997 89.3694 91.422 89.4625 91.3439 89.556C87.3011 94.3977 82.2643 100.43 79.8702 107.454C76.705 116.461 74.1626 125.843 71.7139 134.88ZM82.5598 6.69864C82.5597 6.69879 82.5558 6.70112 82.5478 6.70528C82.5558 6.70059 82.5598 6.6985 82.5598 6.69864ZM79.5841 5.6959C79.5841 5.69595 79.5842 5.69899 79.5843 5.70533C79.5841 5.69906 79.584 5.69586 79.5841 5.6959Z" stroke="#81ADC8" stroke-width="14"/>
<path id="Vector_2" d="M100.032 166.13C99.9971 166.09 99.9646 166.053 99.9333 166.016C99.8013 165.86 99.7336 165.771 99.7018 165.725C99.7005 165.723 99.6992 165.721 99.6982 165.72M100.032 166.13L98.724 167.85L98.8029 167.774L99.0915 167.495L99.9793 166.636C99.9447 166.343 99.8752 166.125 99.8313 166.006C99.7737 165.85 99.718 165.752 99.6982 165.72M100.032 166.13C100.056 166.136 100.074 166.139 100.082 166.141L100.075 166.181L100.032 166.13ZM99.6982 165.72C99.6934 165.712 99.6907 165.708 99.6906 165.708C99.6904 165.708 99.6928 165.712 99.6982 165.72ZM125.255 175.886C124.402 178.313 123.66 180.833 122.97 183.315C121.755 179.069 119.095 175.449 114.807 172.761C114.501 172.568 114.19 172.369 113.874 172.168C111.452 170.623 108.716 168.878 105.484 167.615C109.99 166.227 113.724 164.143 116.816 161.46C119.974 158.722 122.335 155.471 124.165 151.966C124.147 152.482 124.136 152.996 124.135 153.501C123.948 160.119 129.035 163.717 133.48 165.661C132.151 166.358 130.862 167.326 129.939 168.555C129.903 168.598 129.867 168.641 129.83 168.685C128.317 170.496 126.252 172.966 125.255 175.886ZM99.8614 166.074C99.8603 166.073 99.8597 166.073 99.8597 166.073L99.8614 166.074Z" stroke="#CD4631" stroke-width="8"/>
<path id="Vector_3" d="M31.2113 194.522C32.6965 193.234 33.9015 191.77 34.8956 190.202C35.2288 193.55 37.6954 195.571 40.0514 196.776C39.4948 197.162 38.9772 197.63 38.5622 198.179C38.5384 198.208 38.5143 198.237 38.4899 198.266C37.5646 199.372 36.2315 200.966 35.5822 202.866C35.2313 203.865 34.9094 204.893 34.607 205.922C33.676 203.843 32.1252 202.053 29.9047 200.661C29.7151 200.541 29.5217 200.418 29.324 200.291C28.1515 199.543 26.8328 198.701 25.3235 197.985C27.6005 197.129 29.5486 195.964 31.2113 194.522Z" stroke="black" stroke-width="6"/>
</g>
</g>
</svg>

<svg width="156" height="217" fill="none" xmlns="http://www.w3.org/2000/svg"><path d="M71.714 134.88c-.707 2.607-1.405 5.186-2.11 7.718-.322-3.8-.713-7.749-1.354-11.724l-.019-.115-.022-.113c-2.34-11.983-9-22.161-20.823-29.572a702.958 702.958 0 01-2.408-1.53c-9.452-6.022-20.091-12.8-33.917-15.162 17.369-3.046 30.764-9.437 41.161-18.454 11.081-9.61 18.311-21.817 23.49-34.992l.007-.018.007-.018c1.178-3.045 2.107-6.295 2.905-9.477-.104 1.652-.207 3.315-.31 5l-.002.018v.018a364.903 364.903 0 01-.448 6.517c-.356 4.787-.737 9.897-.742 14.79-.488 16.452 13.226 25.12 25.293 29.8l.059.022.058.022a70.06 70.06 0 005.963 1.897c-1.175.305-2.336.622-3.484.946l-.088.025-.086.027c-4.753 1.474-10.105 4.516-13.267 8.772l-.233.279c-4.043 4.842-9.08 10.874-11.474 17.898-3.165 9.007-5.707 18.389-8.156 27.426zM82.56 6.699a.152.152 0 010 0zm-2.976-1.003v0z" stroke="#81ADC8" stroke-width="14"/><path d="M100.032 166.13l-.099-.114a4.227 4.227 0 01-.231-.291l-.004-.005m.334.41l-1.308 1.72.079-.076.288-.279.888-.859a2.76 2.76 0 00-.148-.63 1.67 1.67 0 00-.133-.286m.334.41l.05.011-.007.04-.043-.051zm-.334-.41a.165.165 0 000 0zm25.557 10.166c-.853 2.427-1.595 4.947-2.285 7.429-1.215-4.246-3.875-7.866-8.163-10.554-.306-.193-.617-.392-.933-.593-2.422-1.545-5.158-3.29-8.39-4.553 4.506-1.388 8.24-3.472 11.332-6.155 3.158-2.738 5.519-5.989 7.349-9.494a46.82 46.82 0 00-.03 1.535c-.187 6.618 4.9 10.216 9.345 12.16-1.329.697-2.618 1.665-3.541 2.894a77.5 77.5 0 01-.109.13c-1.513 1.811-3.578 4.281-4.575 7.201zm-25.394-9.812l-.001-.001.001.001z" stroke="#CD4631" stroke-width="8"/><path d="M31.211 194.522c1.486-1.288 2.69-2.752 3.685-4.32.333 3.348 2.8 5.369 5.155 6.574a6.508 6.508 0 00-1.489 1.403 9.243 9.243 0 01-.072.087c-.925 1.106-2.259 2.7-2.908 4.6-.35.999-.673 2.027-.975 3.056-.931-2.079-2.482-3.869-4.702-5.261l-.581-.37c-1.173-.748-2.491-1.59-4-2.306 2.276-.856 4.225-2.021 5.887-3.463z" stroke="#000" stroke-width="6"/></svg>
